X:2013 
T:Brig Lily 
C:Traditional
O:Isle of Man
Z:Clague Coll. 
B:Kiaull Vannin #13
N:The Brig Lily foundered off the Calf of Man in December 1852.
L:1/4
M:6/4 
K:G 
DGG|(B2G) FEE|E3 FGA|(c2A) FDD|D3 DGG| 
(B2G) Gcc|B2G ABB|(c2A) FGG|G3|| 
